X: 3411
T: BRAVE LEWIE ROY
%R: march
B: James Kerr "Merry Melodies" v.3 p.45 #411
Z: 2016 John Chambers <jc:trillian.mit.edu>
M: C
L: 1/8
K: C
[|\
c2  A>G | G2  e>d | c2  A>G | (GA) c2 |\
d2 (de) | g2 (eg) | a2 (ge) | (de) g2 |\
c2  A>G | G2  e>d | c2  A>G | (GA) c2 |\
d2 (de) | g2 (eg) | a2 (ge) |  d2  c2 |]

%%sep 1 1 500
%%sep 1 1 500

